MODULE Module1
    CONST robtarget Target_00:=[[0,-2246.385527781,1713.738524269],[0.23021145,-0.668582596,0.668582596,0.23021145],[0,0,0,0],[9E+09,9E+09,9E+09,9E+09,9E+09,9E+09]];
    CONST robtarget Target_10:=[[-76.443538654,-2395.952996748,1454.921874665],[0.230211477,-0.668582593,0.66858258,0.23021148],[0,-1,0,0],[9E+09,9E+09,9E+09,9E+09,9E+09,9E+09]];
    CONST robtarget Target_20:=[[1445.494,1035.399,0],[0,0.707106781,0.707106781,0],[0,0,0,0],[9E+09,9E+09,9E+09,9E+09,9E+09,9E+09]];
    CONST robtarget Target_30:=[[1293.094,832.199,0],[0,0.707106781,0.707106781,0],[0,-1,0,0],[9E+09,9E+09,9E+09,9E+09,9E+09,9E+09]];
    CONST robtarget Target_40:=[[1191.494,1187.799,0],[0,0.707106781,0.707106781,0],[0,-1,0,0],[9E+09,9E+09,9E+09,9E+09,9E+09,9E+09]];
    CONST robtarget Target_50:=[[937.494,832.199,0],[0,0.707106781,0.707106781,0],[0,-1,0,0],[9E+09,9E+09,9E+09,9E+09,9E+09,9E+09]];
    CONST robtarget Target_60:=[[734.294,1238.599,0],[0,0.707106781,0.707106781,0],[-1,0,-1,0],[9E+09,9E+09,9E+09,9E+09,9E+09,9E+09]];
    CONST robtarget Target_70:=[[429.494,832.199,0],[0,0.707106781,0.707106781,0],[-1,0,-1,0],[9E+09,9E+09,9E+09,9E+09,9E+09,9E+09]];
    CONST robtarget Target_80:=[[277.094,984.599,0],[0,0.707106781,0.707106781,0],[-1,0,-1,0],[9E+09,9E+09,9E+09,9E+09,9E+09,9E+09]];
    CONST robtarget Target_10_3:=[[847.938,-3513.969,1435],[0.130526192,0,-0.991444861,0],[-1,0,0,0],[9E+09,9E+09,9E+09,9E+09,9E+09,9E+09]];
    CONST robtarget Target_10_4:=[[847.938,-3513.969,1435],[0.130526192,0,0.991444861,0],[-1,-1,0,0],[9E+09,9E+09,9E+09,9E+09,9E+09,9E+09]];
    CONST robtarget Target_10_2:=[[847.938,-3513.969,1435],[0,0,1,0],[0,-1,0,0],[9E+09,9E+09,9E+09,9E+09,9E+09,9E+09]];
    CONST robtarget Target_10_5:=[[847.938,-3513.969,1435],[0,0,0.991444861,-0.130526192],[-1,-1,0,0],[9E+09,9E+09,9E+09,9E+09,9E+09,9E+09]];
    CONST robtarget Target_10_6:=[[847.938,-3513.969,1435],[0,0,0.991444861,0.130526192],[-2,0,-1,0],[9E+09,9E+09,9E+09,9E+09,9E+09,9E+09]];
    CONST robtarget Target_10_7:=[[847.938,-3513.969,1350],[0,0,1,0],[-1,-1,0,0],[9E+09,9E+09,9E+09,9E+09,9E+09,9E+09]];
    CONST robtarget HOME:=[[0,-2246.385527781,1713.738524269],[0.23021145,-0.668582596,0.668582596,0.23021145],[0,0,0,0],[9E+09,9E+09,9E+09,9E+09,9E+09,9E+09]];
    CONST robtarget SetUp0:=[[847.938,-3513.969,1600],[0,0,1,0],[0,-1,0,0],[9E+09,9E+09,9E+09,9E+09,9E+09,9E+09]];
    CONST robtarget SetUp1:=[[847.938,-3513.969,1435],[0,0,1,0],[0,-1,0,0],[9E+09,9E+09,9E+09,9E+09,9E+09,9E+09]];
    CONST robtarget SetUp_D:=[[847.938,-3513.969,1435],[0.130526192,0,-0.991444861,0],[-1,0,0,0],[9E+09,9E+09,9E+09,9E+09,9E+09,9E+09]];
    CONST robtarget SetUp_U:=[[847.938,-3513.969,1435],[0.130526192,0,0.991444861,0],[-1,-1,0,0],[9E+09,9E+09,9E+09,9E+09,9E+09,9E+09]];
    CONST robtarget SetUp_L:=[[847.938,-3513.969,1435],[0,0,0.991444861,-0.130526192],[-1,-1,0,0],[9E+09,9E+09,9E+09,9E+09,9E+09,9E+09]];
    CONST robtarget SetUp_R:=[[847.938,-3513.969,1435],[0,0,0.991444861,0.130526192],[-2,0,-1,0],[9E+09,9E+09,9E+09,9E+09,9E+09,9E+09]];
    CONST robtarget SetUp2:=[[847.938,-3513.969,1350],[0,0,1,0],[-1,-1,0,0],[9E+09,9E+09,9E+09,9E+09,9E+09,9E+09]];
    CONST robtarget Target_12:=[[-58.133756044,-2397.268954021,1490.12991755],[0.23021147,-0.66858259,0.668582586,0.230211478],[0,-1,0,0],[9E+09,9E+09,9E+09,9E+09,9E+09,9E+09]];
    CONST robtarget Target_11:=[[-51.6,-2395.953,1475.08],[0.23021145,-0.668582597,0.668582597,0.23021145],[0,-1,0,0],[9E+09,9E+09,9E+09,9E+09,9E+09,9E+09]];
    CONST robtarget Target_13:=[[-58.130333404,-2349.245966493,1490.126743663],[0.230211465,-0.668582586,0.668582592,0.230211478],[0,-1,0,0],[9E+09,9E+09,9E+09,9E+09,9E+09,9E+09]];
!***********************************************************
    !
    ! Módulo:  Module1
    !
    ! Descripción:
    !   <Introduzca la descripción aquí>
    !
    ! Autor: John Panche
    !
    ! Versión: 1.0
    !
    !***********************************************************
    
    
    !***********************************************************
    !
    ! Procedimiento Main
    !
    !   Este es el punto de entrada de su programa
    !
    !***********************************************************
    PROC main()
        SETUP;
        WaitDO OUTPUT1,1;
        WaitTime(4);
        WELDING;
        WaitTime(1);
        Set OUTPUT2;
        Reset OUTPUT2;
    ENDPROC
    PROC SETUP()
        MoveJ HOME,v1000,fine,tWeldGun\WObj:=wobj0;
        MoveJ SetUp0,v1000,fine,tWeldGun\WObj:=wobj0;
        MoveL SetUp1,v100,fine,tWeldGun\WObj:=wobj0;
        MoveL SetUp_D,v5,fine,tWeldGun\WObj:=wobj0;
        MoveL SetUp_U,v5,fine,tWeldGun\WObj:=wobj0;
        MoveL SetUp_D,v5,fine,tWeldGun\WObj:=wobj0;
        MoveL SetUp_U,v5,fine,tWeldGun\WObj:=wobj0;
        MoveL SetUp1,v5,fine,tWeldGun\WObj:=wobj0;
        MoveL SetUp_L,v5,fine,tWeldGun\WObj:=wobj0;
        MoveL SetUp_R,v5,fine,tWeldGun\WObj:=wobj0;
        MoveL SetUp_L,v5,fine,tWeldGun\WObj:=wobj0;
        MoveL SetUp_R,v5,fine,tWeldGun\WObj:=wobj0;
        MoveL SetUp1,v5,fine,tWeldGun\WObj:=wobj0;
        MoveL SetUp2,v100,fine,tWeldGun\WObj:=wobj0;
        WaitTime 1;
        MoveL SetUp0,v100,fine,tWeldGun\WObj:=wobj0;
    ENDPROC
    PROC WELDING()
        MoveJ HOME,v1000,fine,tWeldGun\WObj:=wobj0;
        MoveL Target_10,v1000,fine,tWeldGun\WObj:=wobj0;
        MoveL Target_11,v5,fine,tWeldGun\WObj:=wobj0;
        MoveL Target_12,v5,fine,tWeldGun\WObj:=wobj0;
        MoveL Target_13,v5,fine,tWeldGun\WObj:=wobj0;
        MoveJ HOME,v1000,fine,tWeldGun\WObj:=wobj0;
        MoveJ SetUp0,v1000,fine,tWeldGun\WObj:=wobj0;
    ENDPROC
ENDMODULE